X:150
T:Piping In the Chapel* (r)
B:NFID.171  ("untitled reel")
150piping
S:F&MB
H:This is a composite of two Ed Reavy tunes, "Never Was Piping So Gay"
(parts A and B) and "Maudabawn Chapel" (parts C and D).
N:Source has |DGBe| in measure A3 and |^cbgd| in measure B4. I have
changed both.
L:1/8
M:C
R:reel
Q:360
K:G
P:part A
G,A,B,D GBdB|cafd cAFD|(3EFG BG dGBG|AF (3FFF dFAF|
(3GGG BG DGBd|cafd cdef|gfge cBcA|1 FGAF GEDB,:|2 FGAF G4||
P:part B
g3d ^cdBG|DGBd cAFA|GBBA BcdB|cafd ^cdef|
gb (3agf gdBG|DGBd cAFA|BG (3GGG AF (3FFF|BdcA G4:|
P:part C
EGFD EDB,A,|G,A,B,D EB,DB,|G,A,B,D GABd|gabg ea (3abf|
gabg efge|dged BGBd|(3efg fa gbe^c|dBAF GEED:|
P:part D
(3EEE BE eEBE|GABG AFDF|(3EEE BE eEBE|BAFD A,DFA|
BeBe eEBE|BAFA B^cdf|(3efg fa gbe^c|1 dBAF GEED:|2 dBAF E4||

%%%

